public/formular-icons/greece/lower-epsilon.svg

<svg style="vertical-align:-.025ex" xmlns="http://www.w3.org/2000/svg" width=".919ex" height="1ex" viewBox="0 -431 406 442" xmlns:xlink="http://www.w3.org/1999/xlink"><defs><path id="a" d="M227-11q-78 0-132 52T40 174q0 88 47 148 34 45 86 74t114 34q2 1 42 1h38q15-5 15-20 0-26-41-26h-29q-121 0-158-108l-4-12h177q13-9 13-19 0-18-20-27H138v-2q-10-30-10-74 0-66 32-91t71-26q27 0 53 10t42 21 17 11q7 0 11-10t4-19q0-3-1-4-3-4-20-14T289 0t-62-11Z"/></defs><g stroke="currentColor" fill="currentColor" stroke-width="0"><use data-c="1D716" xlink:href="#a" transform="scale(1 -1)"/></g></svg>

<svg style="vertical-align: -0.025ex" xmlns="http://www.w3.org/2000/svg" width="0.919ex" height="1ex" role="img" focusable="false" viewBox="0 -431 406 442" xmlns:xlink="http://www.w3.org/1999/xlink"><defs><path id="MJX-92-TEX-I-1D716" d="M227 -11Q149 -11 95 41T40 174Q40 262 87 322Q121 367 173 396T287 430Q289 431 329 431H367Q382 426 382 411Q382 385 341 385H325H312Q191 385 154 277L150 265H327Q340 256 340 246Q340 228 320 219H138V217Q128 187 128 143Q128 77 160 52T231 26Q258 26 284 36T326 57T343 68Q350 68 354 58T358 39Q358 36 357 35Q354 31 337 21T289 0T227 -11Z"></path></defs><g stroke="currentColor" fill="currentColor" stroke-width="0" transform="scale(1,-1)"><g data-mml-node="math"><g data-mml-node="mi"><use data-c="1D716" xlink:href="#MJX-92-TEX-I-1D716"></use></g></g></g></svg>
